X: 17
T: Scotch Mary
Z: John E Roche
S: https://thesession.org/tunes/96#setting53667
R: reel
M: 4/4
L: 1/8
K: Ador
AB|cE ~E2 cded|cE ~E2 G2 AB|cE ~E2 cded|cABG A3 B|
cE ~E2 (3Bcd ed|cE E2 G2 AB|c3 B cded|cABG A2 (3Bcd||
eaag eged|(3Bcd ef g3f|eaag (3efg ed|cABG A2 (3Bcd|
eaag e3d|^cd ef g2 fg|afge fded|cABG A2 AB||
(3Bcd ed (3Bcd ed|cEEF G3 A|(3Bcd ed (3Bcd ed|cABG A2 AB|
(3Bcd ed (3Bcd ed|cE ~E2 G3A|(3Bcd eg fded|cABG A3 z||

%-------------------- TUNE SEPARATOR --------------------%

